5b3485a359d5d0ef4df1e0381ee7e8ca.svg

<?xml version="1.0" encoding="UTF-8" standalone="no"?>
<svg width="51px" height="51px" viewBox="0 0 51 51" version="1.1" xmlns="http://www.w3.org/2000/svg" xmlns:xlink="http://www.w3.org/1999/xlink">
    <!-- Generator: Sketch 50.2 (55047) - http://www.bohemiancoding.com/sketch -->
    <title>concourse_logo</title>
    <desc>Created with Sketch.</desc>
    <defs>
        <polygon id="path-1" points="0.305831299 0.828871461 24.5147674 0.828871461 24.5147674 15.2534314 0.305831299 15.2534314"></polygon>
        <polygon id="path-3" points="0 0.289436355 19.3732307 0.289436355 19.3732307 18.6122511 0 18.6122511"></polygon>
        <polygon id="path-5" points="0.810567343 1.26756015 15.838445 1.26756015 15.838445 26.1616177 0.810567343 26.1616177"></polygon>
    </defs>
    <g id="concourse_logo" stroke="none" stroke-width="1" fill="none" fill-rule="evenodd">
        <g id="Group" transform="translate(6.000000, 6.000000)">
            <path d="M18.0051504,20.1089776 C18.1027724,21.2834919 19.1339043,22.1544628 20.3068932,22.0568408 C21.4814074,21.9592189 22.3539037,20.9296123 22.2562817,19.755098 C22.1586598,18.5821092 21.1275278,17.7096129 19.9530136,17.8072349 C18.7800247,17.9048568 17.9075284,18.9359888 18.0051504,20.1089776" id="Fill-1" fill="#FEFEFE"></path>
            <g id="Group-5" transform="translate(7.626716, 21.538834)">
                <mask id="mask-2" fill="white">
                    <use xlink:href="#path-1"></use>
                </mask>
                <g id="Clip-4"></g>
                <path d="M15.5973963,0.828871461 C15.0635262,1.41917925 14.4015272,1.87983288 13.6617358,2.17880014 L13.6556344,2.19557891 C14.2184861,4.3661422 15.1031851,6.4207794 16.2593952,8.30610352 C15.716373,8.59286803 15.0696275,8.86742979 14.3557669,9.06724975 C13.9195188,9.18470117 13.4603905,9.28384847 12.9844835,9.34181151 L12.8227971,9.36164097 L12.6306038,9.3768944 L12.244692,9.40587592 C12.0082638,9.40587592 11.7764117,9.42875607 11.5293061,9.41350264 C11.0366203,9.40892661 10.5439344,9.34943823 10.0604007,9.27317107 C9.57991757,9.18470117 9.1070612,9.07335112 8.66013566,8.92386749 C8.21168478,8.78353592 7.78916473,8.60507077 7.3956262,8.41745357 C7.00208767,8.22983636 6.64363203,8.02391504 6.32025929,7.81799372 C5.99841189,7.61054705 5.70859669,7.40767641 5.46759248,7.20785646 C5.21591086,7.01871391 5.01914159,6.82804602 4.84830316,6.67856239 C4.52340507,6.36586705 4.34341458,6.1767245 4.34341458,6.1767245 C4.34341458,6.1767245 4.49442355,6.38722185 4.77813738,6.74567749 C4.927621,6.91651592 5.09998478,7.13616533 5.32726091,7.36191612 C5.54385963,7.59681896 5.81079468,7.84239921 6.10976194,8.10170754 C6.41330522,8.35796519 6.75498208,8.62184955 7.13784321,8.87200582 C7.519179,9.12368744 7.93864836,9.37079303 8.39320061,9.58586641 C8.84470218,9.80856651 9.33433733,9.99770906 9.84075125,10.1624461 C10.3517412,10.3180311 10.8810353,10.455312 11.4225321,10.5361552 C11.6894671,10.5880169 11.977757,10.6047956 12.2553694,10.6383532 L12.6428066,10.6612333 L12.8349998,10.6734361 L13.0561746,10.6764868 C13.6007221,10.6841135 14.1391682,10.6459799 14.6577849,10.5773395 C15.6462072,10.4415839 16.5400583,10.1838009 17.3134073,9.87415626 C17.6383054,10.3165058 17.9799822,10.7466525 18.3369125,11.1630712 C18.3186084,11.1737486 18.3048803,11.1829007 18.2865762,11.1935781 C18.1584474,11.2728959 18.0150651,11.3613658 17.8610055,11.4574624 L17.8015171,11.4940707 L17.7862637,11.5032227 L17.783213,11.5062734 C17.7115218,11.5413563 17.8762589,11.4589878 17.8579548,11.4681398 L17.8503281,11.4727159 L17.8182959,11.4879693 C17.7771116,11.5108495 17.7328766,11.5322043 17.690167,11.5550844 C17.6016971,11.5993194 17.5101765,11.6450796 17.4171306,11.6923653 L17.2737484,11.7655818 L17.2005319,11.80219 L17.1639237,11.8220195 L17.1547716,11.8265955 L17.1486702,11.8281208 C17.1364675,11.8342222 17.2447668,11.7899872 17.1974812,11.8098167 L17.1776517,11.8174434 C17.0754538,11.8632037 16.9702051,11.908964 16.8619057,11.9562496 C16.7536063,12.0050606 16.6422563,12.0538716 16.5278556,12.1026826 L16.485146,12.122512 L16.4805699,12.1240374 C16.5537864,12.0981066 16.4973487,12.117936 16.5126021,12.11336 L16.5019247,12.117936 L16.4805699,12.1255627 L16.3921,12.1606456 L16.2121095,12.2308114 C15.3274105,12.5740136 14.2123847,12.8790822 12.9982115,13.0163631 C12.3895996,13.0834782 11.7520062,13.1155104 11.1052607,13.0911049 L10.8779846,13.0834782 L10.6217269,13.0636488 L10.1092116,13.0224645 C9.79041493,12.9721282 9.47161821,12.949248 9.14519478,12.8790822 C8.48929723,12.7662069 7.84712777,12.584691 7.22021174,12.380295 C6.59939708,12.162171 5.9953612,11.91354 5.43556027,11.6221995 C5.15184645,11.4803426 4.87881002,11.330859 4.61950169,11.1706979 C4.35256664,11.019689 4.10851174,10.8488505 3.86598218,10.6856388 C3.38549909,10.3561647 2.95382699,10.0083865 2.56944051,9.66823494 C2.18963007,9.32655808 1.84947855,8.9986093 1.5718661,8.68591396 C1.28052556,8.38389602 1.06087615,8.09103014 0.867157574,7.85917798 C0.679540368,7.62427514 0.548360858,7.42598053 0.450738897,7.29632636 C0.356167623,7.16514685 0.305831299,7.09498107 0.305831299,7.09498107 C0.305831299,7.09498107 0.348540907,7.16972288 0.429384093,7.31005445 C0.513277966,7.44886068 0.623102672,7.66088337 0.78783973,7.91561568 C0.957152819,8.16729729 1.14934605,8.48456867 1.41170507,8.81861881 C1.660336,9.16334636 1.96998066,9.53095406 2.32233493,9.91991656 C2.67926522,10.3058284 3.0850065,10.708519 3.54718547,11.0990068 C3.77903762,11.2942507 4.01546581,11.4971214 4.27629949,11.6816879 C4.52950645,11.8769318 4.79796684,12.0614983 5.07862998,12.2399635 C5.63538022,12.6060458 6.24399213,12.9324693 6.88006022,13.2299112 C7.52222968,13.5166757 8.19032998,13.78056 8.8843611,13.9742786 C9.22451262,14.0856287 9.59364566,14.1542691 9.94752527,14.2442644 L10.4554645,14.3373103 L10.7086715,14.3830706 L10.99086,14.4242548 C11.6970938,14.5218768 12.4033277,14.5600104 13.0882068,14.5554344 C14.4610156,14.5386556 15.7301011,14.3327343 16.8130947,14.0352923 L16.9991866,13.9834307 L17.0907072,13.9574998 L17.2173107,13.9178409 C17.3362874,13.8797073 17.4506882,13.8415738 17.5635636,13.8049655 C17.6764389,13.7698826 17.7862637,13.7332744 17.8930377,13.6997169 C18.0150651,13.6524312 18.1340419,13.6066709 18.249968,13.562436 C18.3475899,13.5243024 18.4436865,13.4876942 18.5352071,13.4510859 C18.5809674,13.4343071 18.6267277,13.416003 18.6709627,13.3992243 L18.7029949,13.3870215 L18.7121469,13.3839708 L18.7975662,13.3412612 L18.8143449,13.3336345 L18.8753587,13.3031276 C19.0400957,13.2222845 19.1911047,13.149068 19.3268602,13.0834782 C19.5617631,12.9706028 19.7493803,12.8790822 19.8912372,12.8104418 C20.2740983,13.1765242 20.6676368,13.5319291 21.0779541,13.8720806 C21.0779541,13.8720806 23.0273427,15.8809575 24.1027096,15.0542216 C25.1124867,14.2778219 23.9486499,11.8433743 23.9486499,11.8433743 C22.3958506,7.4107271 19.4824452,3.54855827 15.5973963,0.828871461" id="Fill-3" fill="#FEFEFE" mask="url(#mask-2)"></path>
            </g>
            <g id="Group-8" transform="translate(0.000000, 4.760060)">
                <mask id="mask-4" fill="white">
                    <use xlink:href="#path-3"></use>
                </mask>
                <g id="Clip-7"></g>
                <path d="M16.4201663,14.3064984 L16.4094889,14.2927703 C14.2770592,13.6628035 12.0805651,13.362311 9.88864702,13.376039 C9.92525526,12.7308189 10.03508,11.9834008 10.2608308,11.2161532 C10.3904849,10.784481 10.5506459,10.3421315 10.7535166,9.90740875 L10.822157,9.75945046 L10.9106269,9.58861203 L11.0906174,9.24693517 C11.2156956,9.04558987 11.3209442,8.83661786 11.4643265,8.63527257 C11.7297362,8.22037924 12.0393808,7.83294208 12.3612283,7.46380904 C12.6907024,7.10230272 13.0354299,6.76062585 13.3984616,6.4616586 C13.7569172,6.15506463 14.1306263,5.89118026 14.498234,5.65780276 C14.8658417,5.42289992 15.2303987,5.227656 15.5766516,5.0613936 C15.9229045,4.89970723 16.2493279,4.76242634 16.5452445,4.6617537 C16.8396357,4.5488783 17.1050454,4.48328855 17.3231695,4.41769879 C17.760943,4.30787409 18.0172006,4.25448708 18.0172006,4.25448708 C18.0172006,4.25448708 17.7578923,4.2727912 17.30334,4.32312752 C17.0791146,4.35973575 16.8015021,4.38871727 16.4903321,4.46193375 C16.1745861,4.52142213 15.8252825,4.61751875 15.4469974,4.73344482 C15.0702377,4.85547227 14.6660217,5.0049559 14.2496031,5.19714914 C13.8347097,5.38781703 13.4030376,5.61204247 12.9789922,5.88507889 C12.5503708,6.1504886 12.1324268,6.46318394 11.7221095,6.80638615 C11.3209442,7.15721507 10.924355,7.53397482 10.5689501,7.9503935 C10.3828582,8.14868811 10.2165958,8.38359095 10.039656,8.60171502 L9.81543055,8.91898639 L9.7040805,9.07609674 L9.5835784,9.2621886 C9.28918717,9.71979154 9.03598021,10.1956986 8.81938149,10.673131 C8.38923472,11.6310465 8.12382501,12.5767592 7.9819681,13.4309514 L7.97586673,13.469085 C7.4374206,13.517896 6.90202516,13.5880617 6.36815506,13.6750063 C6.36815506,13.5880617 6.36968041,13.4965411 6.36968041,13.3943432 C6.36968041,13.2433342 6.37120575,13.0755464 6.37120575,12.8940306 L6.37273109,12.8238648 L6.37273109,12.807086 L6.37273109,12.80251 C6.38035781,12.7231922 6.36205369,12.9062334 6.36357903,12.8864039 L6.36510438,12.8772518 L6.36815506,12.8421689 C6.37120575,12.7948833 6.37578178,12.7460723 6.38035781,12.6972613 C6.38950987,12.5996394 6.39866193,12.4974414 6.40781399,12.3921927 C6.41239001,12.340331 6.41696604,12.286944 6.42154207,12.2320317 L6.42916879,12.1511885 L6.43221948,12.1100042 L6.43374482,12.0993268 L6.43374482,12.0932255 C6.43527016,12.0794974 6.41696604,12.1954235 6.42459276,12.1450871 L6.42764345,12.1237323 C6.44442222,12.0123823 6.461201,11.8995069 6.47797977,11.7820555 C6.49475854,11.664604 6.51153732,11.5441019 6.52984144,11.4220745 L6.53746815,11.3763142 L6.53746815,11.3702128 C6.52068938,11.44648 6.53289212,11.3885169 6.52984144,11.4037704 L6.53289212,11.3915676 L6.53594281,11.3686875 L6.55424693,11.2756415 L6.58932982,11.086499 C6.76626962,10.152989 7.09879443,9.04558987 7.62656315,7.94276678 C7.89197286,7.39211791 8.20161751,6.83536767 8.56464918,6.29844688 L8.692778,6.10930433 L8.84531232,5.90338301 L9.15190629,5.49001502 C9.36240364,5.24596012 9.55002085,4.98817713 9.78492369,4.74869825 C10.2257479,4.25296174 10.7214844,3.80298551 11.226373,3.3819908 C11.7404136,2.97014816 12.2697077,2.58881237 12.8157805,2.26849031 C13.0857662,2.10375325 13.355752,1.9496936 13.6303137,1.8154634 C13.8987741,1.66903046 14.1733359,1.55157904 14.4402709,1.43412762 C14.9756664,1.20075012 15.4988591,1.01770894 15.9900196,0.871276 C16.4811801,0.730944431 16.9403083,0.616543696 17.352151,0.546377912 C17.7624683,0.459433353 18.1270253,0.427401147 18.4259926,0.386216882 C18.7249598,0.352659333 18.9629133,0.346557961 19.1245997,0.332829873 C19.2862861,0.322152471 19.3732307,0.316051098 19.3732307,0.316051098 C19.3732307,0.316051098 19.2862861,0.313000412 19.1245997,0.306899039 C18.9629133,0.305373696 18.7234345,0.285544235 18.4214165,0.290120265 C18.1178733,0.300797667 17.7472149,0.294696294 17.3246948,0.340456588 C16.9006494,0.367912765 16.4247424,0.436553206 15.907651,0.529599137 C15.3920851,0.627221098 14.8353348,0.759925951 14.2587551,0.942967127 C13.9704653,1.0375384 13.6730233,1.13058433 13.3786321,1.25413713 C13.0796649,1.36396183 12.7806976,1.49514134 12.480205,1.6385236 C11.8761691,1.91613605 11.2767093,2.25933825 10.6848761,2.64067404 C10.1037204,3.03421257 9.52409001,3.46130865 8.9932706,3.94636776 C8.71870884,4.17669458 8.46550188,4.45278169 8.20009217,4.70598865 L7.85231394,5.08732443 L7.67995016,5.27646698 L7.49538364,5.49459105 C7.0377807,6.04218924 6.63203943,6.62181963 6.27358379,7.20450071 C5.5597232,8.37901492 5.06246134,9.56420654 4.74061394,10.6410988 L4.68570158,10.8256653 L4.65977075,10.9156606 L4.6262132,11.0453147 C4.59570634,11.1658168 4.56672482,11.2832683 4.5377433,11.397669 C4.50876178,11.5135951 4.4813056,11.6249451 4.45384943,11.7332445 C4.42944394,11.8628986 4.40503845,11.9879768 4.38063296,12.1084789 C4.3608035,12.2122022 4.34249938,12.3128749 4.32419526,12.4089715 C4.31351786,12.4577825 4.3043658,12.5050681 4.29673908,12.5523537 L4.28911237,12.5859113 L4.28758702,12.5950634 L4.27843497,12.69116 L4.27690962,12.7094641 L4.26928291,12.7781045 C4.24945345,12.9596204 4.23267467,13.1258828 4.2158959,13.2753664 C4.16708492,13.7329693 4.13505271,14.0410886 4.12132462,14.1631161 C3.60270796,14.3034477 3.08714198,14.460558 2.57767737,14.6390232 C2.57767737,14.6390232 -0.148110819,15.2766166 0.00594883824,16.6219692 C0.152381779,17.888004 2.83851104,18.145787 2.83851104,18.145787 C7.4374206,19.0976011 12.2468275,18.5881365 16.5803274,16.6601028 C16.3500006,15.8989566 16.2950882,15.0935754 16.4201663,14.3064984" id="Fill-6" fill="#FEFEFE" mask="url(#mask-4)"></path>
            </g>
            <g id="Group-11" transform="translate(19.829461, 0.184030)">
                <mask id="mask-6" fill="white">
                    <use xlink:href="#path-5"></use>
                </mask>
                <g id="Clip-10"></g>
                <path d="M15.789437,17.4198762 C15.7238472,16.7212691 15.6246999,16.0074085 15.4523361,15.3088013 C15.3821703,14.9579724 15.2601429,14.6025675 15.1640463,14.2502132 L14.9962585,13.7621034 L14.9123646,13.5195738 L14.8086413,13.2541641 C14.5462823,12.5891145 14.2320616,11.9560971 13.8919101,11.3627386 C13.202455,10.1744963 12.4001245,9.17082054 11.6069461,8.37306608 L11.4711905,8.23731054 L11.4040754,8.17019545 L11.3064535,8.07867486 C11.2149329,7.99478099 11.126463,7.91241246 11.0395184,7.83309461 C10.9525739,7.75225143 10.8671546,7.67445893 10.7847861,7.59819177 C10.6841135,7.5142979 10.5849662,7.43345471 10.4903949,7.35566221 C10.4080264,7.28854711 10.3302339,7.22295736 10.2539667,7.16041829 L10.1426167,7.0688977 L10.1151605,7.04601755 L10.1075338,7.03991618 L10.0282159,6.98652917 L10.0129625,6.97585177 L9.95652479,6.93619285 C9.80704117,6.83246951 9.66823494,6.73789824 9.54468215,6.65247902 C9.3097793,6.48926731 9.12368744,6.36113849 8.99098259,6.2696179 C9.13436484,5.70066491 9.25486695,5.12713589 9.35401425,4.54598015 C9.35401425,4.54598015 10.1151605,1.85222417 8.86132842,1.33665819 C7.68376352,0.851599074 6.15842038,3.07707471 6.15842038,3.07707471 C3.10010739,6.64180162 1.2193593,11.0988543 0.810567343,15.822842 C1.58849234,15.9906297 2.31913171,16.3307812 2.94909842,16.8219417 L2.9658772,16.818891 C4.50799911,15.2965986 5.80759146,13.5699102 6.84329945,11.7013648 C7.37716955,12.0369403 7.95832528,12.4777645 8.50439813,13.0253627 C8.8216695,13.3456847 9.1328395,13.698039 9.41655332,14.0824254 L9.51417528,14.213605 L9.62247465,14.373766 L9.83754803,14.6956134 C9.95347411,14.9015347 10.086179,15.0922026 10.1960037,15.316428 C10.4324319,15.7481002 10.6246251,16.2041777 10.7939382,16.663306 C10.9540992,17.125485 11.0898547,17.59224 11.1783246,18.054419 C11.277472,18.5150726 11.3293336,18.9711502 11.3598405,19.4043477 C11.3903473,19.8390704 11.3872967,20.2539638 11.3659419,20.6368249 C11.3430617,21.0181607 11.3079788,21.370515 11.2545918,21.6786343 C11.2118822,21.9898043 11.1432418,22.255214 11.0974815,22.4779141 C10.9846061,22.9156876 10.9083389,23.1643185 10.9083389,23.1643185 C10.9083389,23.1643185 11.0166383,22.9294156 11.189002,22.5068956 C11.2652692,22.2918222 11.3720432,22.0340392 11.4574624,21.7259199 C11.5550844,21.4208513 11.6374529,21.068497 11.7167708,20.6795345 C11.7899872,20.290572 11.851001,19.8634759 11.8815078,19.4073983 C11.91354,18.9497954 11.9226921,18.4647363 11.8860839,17.961373 C11.8586277,17.4580098 11.7823605,16.9409185 11.6771119,16.4177258 C11.5627111,15.8975838 11.4208542,15.3682897 11.2256103,14.8572998 C11.1386657,14.5995168 11.0120622,14.3402084 10.9052882,14.0809001 L10.7344498,13.7315965 L10.6505559,13.5592327 L10.5453072,13.3639888 C10.2829482,12.8865564 9.98550631,12.4365802 9.67128563,12.0186362 C9.04894563,11.1995269 8.36101587,10.5283759 7.69291558,10.0006072 C7.92171705,9.48809192 8.13373975,8.96794991 8.32440764,8.43865584 C8.35338916,8.45543461 8.37931999,8.4691627 8.40982685,8.48594148 C8.54253171,8.55915795 8.68896465,8.64000113 8.84912568,8.72847103 L8.90861406,8.76202858 L8.92539283,8.7696553 L8.92844352,8.77270599 C8.99555862,8.81694094 8.8430243,8.7132176 8.85980308,8.72542035 L8.86742979,8.72999638 L8.89641131,8.74982584 L9.01691342,8.82914368 C9.09928195,8.88405603 9.18470117,8.94049373 9.27164573,8.99845677 L9.40587592,9.08845201 L9.47451636,9.13268697 L9.50807391,9.15709246 L9.51722597,9.16166849 L9.521802,9.16471917 C9.5324794,9.17387123 9.44095881,9.10065476 9.48061774,9.13268697 L9.49739651,9.14641505 C9.58739175,9.21353015 9.68043769,9.28217059 9.77500896,9.35233638 C9.86958024,9.4240275 9.96567685,9.49724398 10.0648242,9.57046045 L10.1029577,9.59944197 L10.1075338,9.60249265 C10.0480454,9.55063099 10.0938057,9.59028991 10.0816029,9.5796125 L10.090755,9.58723922 L10.1090591,9.60249265 L10.1822756,9.66198103 L10.3317592,9.78400849 C11.0669746,10.386519 11.8799825,11.2071536 12.5968938,12.1971013 C12.9538241,12.6943632 13.2939756,13.2328093 13.5929428,13.809389 L13.6966662,14.0107343 L13.8049655,14.2425865 L14.0215643,14.7108668 C14.1344396,15.0128848 14.2717205,15.3011746 14.3693425,15.6199713 C14.5935679,16.245362 14.7522036,16.8951582 14.8803324,17.5403783 C14.9962585,18.1886492 15.0771017,18.83692 15.0984565,19.4684121 C15.1137099,19.7841581 15.118286,20.0953281 15.1060832,20.4003967 C15.1060832,20.7069907 15.0771017,21.0044326 15.0542216,21.2957731 C15.0023599,21.8769289 14.9123646,22.4230017 14.8055906,22.9248396 C14.6942406,23.4236268 14.5767892,23.8812298 14.4410336,24.2762936 C14.3205315,24.6789842 14.1740986,25.0130344 14.0673245,25.2952228 C13.9544492,25.575886 13.8461498,25.7863833 13.78056,25.935867 C13.7134449,26.0822999 13.6768367,26.1616177 13.6768367,26.1616177 C13.6768367,26.1616177 13.7210717,26.0868759 13.8034402,25.9480697 C13.882758,25.8062128 14.0139375,25.6063928 14.1542691,25.3379325 C14.2900246,25.0664214 14.4730658,24.7430486 14.6347522,24.3510354 C14.8132173,23.9651236 14.9794797,23.5151474 15.1457421,23.0163602 C15.3074285,22.5160477 15.4569121,21.9638734 15.5713129,21.370515 C15.6262252,21.0715477 15.687239,20.7664791 15.7192712,20.4492077 C15.7650315,20.1319363 15.794013,19.8070382 15.8107918,19.4760388 C15.856552,18.8109892 15.842824,18.1215341 15.789437,17.4198762" id="Fill-9" fill="#FEFEFE" mask="url(#mask-6)"></path>
            </g>
        </g>
    </g>
</svg>

<svg width="51" height="51" xmlns="http://www.w3.org/2000/svg" xmlns:xlink="http://www.w3.org/1999/xlink"><defs><path id="a" d="M.306.829h24.209v14.424H.305z"/><path id="c" d="M0 .29h19.373v18.322H0z"/><path id="e" d="M.81 1.268h15.028v24.894H.811z"/></defs><g fill="none" fill-rule="evenodd"><path d="M24.005 26.109a2.132 2.132 0 1 0 4.253-.354 2.132 2.132 0 0 0-4.253.354" fill="#FEFEFE"/><g transform="translate(13.627 27.539)"><mask id="b" fill="#fff"><use xlink:href="#a"/></mask><path d="M15.597.829a5.27 5.27 0 0 1-1.935 1.35l-.006.017a22.483 22.483 0 0 0 2.603 6.11 9.725 9.725 0 0 1-1.903.761 9.87 9.87 0 0 1-1.372.275l-.161.02-.192.015-.386.029c-.237 0-.469.023-.716.008a10.061 10.061 0 0 1-1.469-.14 10.324 10.324 0 0 1-2.664-.857 10.074 10.074 0 0 1-1.076-.599 8.957 8.957 0 0 1-.852-.61c-.252-.19-.449-.38-.62-.53-.325-.312-.505-.501-.505-.501s.151.21.435.569c.15.17.322.39.55.616a10.487 10.487 0 0 0 1.81 1.51 10.923 10.923 0 0 0 4.285 1.664c.266.052.555.069.832.102l.388.023.192.012.221.003a11.057 11.057 0 0 0 4.257-.802c.325.443.667.873 1.024 1.29l-.05.03-.426.263-.06.037-.015.01-.003.002.075-.038-.008.005-.032.015c-.04.023-.085.044-.128.067l-.273.137-.143.074-.073.036-.037.02-.01.005-.005.001c-.013.006.096-.038.048-.018l-.02.007-.315.14-.334.146-.043.02-.004.001c.073-.026.016-.006.032-.01l-.011.004-.021.008-.089.035-.18.07a13.12 13.12 0 0 1-5.107.86l-.227-.008-.256-.02-.513-.04c-.319-.05-.637-.074-.964-.144a13.768 13.768 0 0 1-1.925-.499 13.75 13.75 0 0 1-1.784-.758 10.422 10.422 0 0 1-.816-.451c-.267-.151-.511-.322-.754-.485a13.622 13.622 0 0 1-2.294-2c-.291-.302-.511-.595-.705-.827-.187-.235-.319-.433-.416-.563l-.145-.201.123.215c.084.139.194.35.359.606.17.251.361.569.624.903a13.82 13.82 0 0 0 2.135 2.28c.232.195.468.398.73.583.253.195.521.38.802.558a14.335 14.335 0 0 0 3.805 1.734c.34.112.71.18 1.064.27l.507.093.254.046.282.041a14.64 14.64 0 0 0 2.097.131 14.849 14.849 0 0 0 3.725-.52l.186-.052.092-.026.126-.04c.12-.037.234-.075.347-.112.112-.035.222-.072.329-.105l.357-.138.285-.11.136-.053.032-.012.01-.003.085-.043.016-.007.061-.03c.165-.082.316-.155.452-.22.235-.113.422-.205.564-.274.383.367.777.722 1.187 1.062 0 0 1.95 2.009 3.025 1.182 1.01-.776-.154-3.21-.154-3.21A22.554 22.554 0 0 0 15.597.828" fill="#FEFEFE" mask="url(#b)"/></g><g transform="translate(6 10.76)"><mask id="d" fill="#fff"><use xlink:href="#c"/></mask><path d="M16.42 14.306l-.01-.013a22.505 22.505 0 0 0-6.521-.917 9.67 9.67 0 0 1 .372-2.16c.13-.432.29-.874.493-1.309l.068-.148.089-.17.18-.342c.125-.201.23-.41.373-.612.266-.415.575-.802.897-1.171a10.165 10.165 0 0 1 2.137-1.806 10.178 10.178 0 0 1 2.047-.996c.295-.113.56-.179.778-.244.438-.11.694-.164.694-.164s-.26.019-.714.07c-.224.036-.501.065-.813.138-.315.06-.665.156-1.043.271a10.749 10.749 0 0 0-2.468 1.152c-.429.265-.847.578-1.257.921a11.21 11.21 0 0 0-1.153 1.144c-.186.199-.352.434-.53.652l-.224.317-.11.157-.121.186c-.295.458-.548.934-.765 1.411a11.29 11.29 0 0 0-.837 2.758l-.006.038a23.47 23.47 0 0 0-1.608.206l.002-.28.001-.501.002-.07v-.021c.007-.08-.01.103-.01.083l.002-.009.003-.035.012-.145a45.73 45.73 0 0 0 .042-.465l.007-.08.003-.042.002-.01v-.007c.001-.014-.017.102-.01.052l.004-.021.05-.342.052-.36.007-.046v-.006l-.007.034.003-.012.003-.023.018-.093.035-.19a13.045 13.045 0 0 1 1.976-4.788l.128-.189.152-.206.307-.413c.21-.244.398-.502.633-.741a13.396 13.396 0 0 1 3.03-2.48c.27-.165.54-.32.815-.454.269-.146.543-.263.81-.38A13.6 13.6 0 0 1 15.99.87c.491-.14.95-.254 1.362-.325.41-.087.775-.119 1.074-.16.299-.033.537-.04.699-.053.161-.01.248-.017.248-.017l-.248-.01c-.162 0-.402-.02-.704-.016-.303.01-.674.005-1.096.05a12.9 12.9 0 0 0-1.417.19 14.05 14.05 0 0 0-1.65.413c-.288.095-.585.188-.88.311-.298.11-.597.241-.898.385-.604.277-1.203.62-1.795 1.002-.581.393-1.16.82-1.692 1.305-.274.23-.527.507-.793.76l-.348.381-.172.19-.185.218a14.584 14.584 0 0 0-2.754 5.146l-.055.185-.026.09-.034.13-.088.352-.084.335-.073.375-.057.301c-.01.049-.02.096-.027.143l-.008.034-.001.01-.01.095-.001.018-.008.07c-.02.18-.036.347-.053.496-.049.458-.08.766-.095.888-.518.14-1.034.298-1.543.476 0 0-2.726.638-2.572 1.983.146 1.266 2.833 1.524 2.833 1.524 4.598.952 9.408.442 13.741-1.486a5.273 5.273 0 0 1-.16-2.354" fill="#FEFEFE" mask="url(#d)"/></g><g transform="translate(25.83 6.184)"><mask id="f" fill="#fff"><use xlink:href="#e"/></mask><path d="M15.79 17.42a14.468 14.468 0 0 0-.338-2.111c-.07-.351-.192-.706-.288-1.059l-.168-.488-.084-.242-.103-.266a14.559 14.559 0 0 0-3.202-4.88l-.136-.137-.067-.067-.098-.091-.266-.246-.255-.235c-.1-.084-.2-.165-.295-.242l-.236-.196-.111-.091-.028-.023-.007-.006-.08-.053-.015-.011-.056-.04-.412-.284-.554-.382a22.59 22.59 0 0 0 .363-1.724s.761-2.694-.493-3.21C7.684.853 6.158 3.078 6.158 3.078A22.565 22.565 0 0 0 .811 15.823a5.29 5.29 0 0 1 2.138.999l.017-.003A22.54 22.54 0 0 0 6.843 11.7a9.514 9.514 0 0 1 2.574 2.381l.097.132.108.16.216.322c.115.206.248.396.358.62a10 10 0 0 1 .598 1.347c.16.462.296.93.384 1.391.1.461.151.917.182 1.35.03.435.027.85.006 1.233a9.584 9.584 0 0 1-.111 1.042c-.043.31-.112.576-.158.799-.112.438-.189.686-.189.686s.109-.235.281-.657c.076-.215.183-.473.268-.781a10.187 10.187 0 0 0 .425-2.319 10.879 10.879 0 0 0-.656-4.55c-.087-.257-.214-.517-.32-.776l-.172-.35-.083-.172-.106-.195c-.262-.477-.56-.927-.874-1.345A11.27 11.27 0 0 0 7.693 10c.229-.513.44-1.033.631-1.562l.086.047.44.242.059.034.016.008.003.003a.758.758 0 0 0-.068-.048l.007.005.03.02.12.08.255.168.134.09.069.045.033.024.01.005.004.003-.041-.032.016.013c.09.068.183.136.278.206.095.072.19.145.29.218l.038.03.005.002-.026-.022.009.007.018.015.073.06.15.122a13.114 13.114 0 0 1 2.265 2.413c.357.497.697 1.036.996 1.612l.104.202.108.232.217.468c.112.302.25.59.347.909a13.326 13.326 0 0 1 .729 3.848c.016.316.02.627.008.932 0 .307-.029.604-.052.896a13.662 13.662 0 0 1-.613 2.98c-.12.403-.267.737-.374 1.02-.113.28-.22.49-.286.64l-.104.226.126-.214c.08-.142.21-.342.351-.61.136-.272.32-.595.48-.987a13.943 13.943 0 0 0 .937-2.98c.055-.3.116-.605.148-.922.046-.317.075-.642.092-.973.046-.665.032-1.354-.022-2.056" fill="#FEFEFE" mask="url(#f)"/></g></g></svg>
